app/assets/images/heroicon/mini/table-cells.svg

<svg width="20" height="20" viewBox="0 0 20 20" fill="none" xmlns="http://www.w3.org/2000/svg">
<path fill-rule="evenodd" clip-rule="evenodd" d="M1 4.25C1 3.00736 2.00736 2 3.25 2H16.75C17.9926 2 19 3.00736 19 4.25V15.76C19 17.0027 17.9926 18.01 16.75 18.01H11.5C11.4279 18.01 11.3567 18.0066 11.2864 18H8.71363C8.64331 18.0066 8.57205 18.01 8.5 18.01H3.25C2.00736 18.01 1 17.0027 1 15.76V4.25ZM9.25 15.76V15.135C9.25 14.7208 8.91421 14.385 8.5 14.385H3.25C2.83579 14.385 2.5 14.7208 2.5 15.135V15.75C2.5 16.1642 2.83579 16.5 3.25 16.5H8.62283C8.97861 16.4414 9.25 16.1324 9.25 15.76ZM10.75 15.76C10.75 16.1324 11.0214 16.4414 11.3772 16.5H16.75C17.1642 16.5 17.5 16.1642 17.5 15.75V15.135C17.5 14.7208 17.1642 14.385 16.75 14.385H11.5C11.0858 14.385 10.75 14.7208 10.75 15.135V15.76ZM17.5 12.13V11.505C17.5 11.0908 17.1642 10.755 16.75 10.755H11.5C11.0858 10.755 10.75 11.0908 10.75 11.505V12.13C10.75 12.5442 11.0858 12.88 11.5 12.88H16.75C17.1642 12.88 17.5 12.5442 17.5 12.13ZM9.25 12.13V11.505C9.25 11.0908 8.91421 10.755 8.5 10.755H3.25C2.83579 10.755 2.5 11.0908 2.5 11.505V12.13C2.5 12.5442 2.83579 12.88 3.25 12.88H8.5C8.91421 12.88 9.25 12.5442 9.25 12.13ZM17.5 8.5V7.875C17.5 7.46079 17.1642 7.125 16.75 7.125H11.5C11.0858 7.125 10.75 7.46079 10.75 7.875V8.5C10.75 8.91421 11.0858 9.25 11.5 9.25H16.75C17.1642 9.25 17.5 8.91421 17.5 8.5ZM9.25 8.5V7.875C9.25 7.46079 8.91421 7.125 8.5 7.125H3.25C2.83579 7.125 2.5 7.46079 2.5 7.875V8.5C2.5 8.91421 2.83579 9.25 3.25 9.25H8.5C8.91421 9.25 9.25 8.91421 9.25 8.5Z" fill="#0F172A"/>
</svg>

<svg xmlns="http://www.w3.org/2000/svg" viewBox="0 0 20 20" fill="currentColor" aria-hidden="true">
  <path fill-rule="evenodd" d="M1 4.25A2.25 2.25 0 013.25 2h13.5A2.25 2.25 0 0119 4.25v11.51a2.25 2.25 0 01-2.25 2.25H11.5c-.072 0-.143-.003-.214-.01H8.714c-.07.007-.142.01-.214.01H3.25A2.25 2.25 0 011 15.76V4.25zm8.25 11.51v-.625a.75.75 0 00-.75-.75H3.25a.75.75 0 00-.75.75v.615c0 .414.336.75.75.75h5.373a.75.75 0 00.627-.74zm1.5 0a.75.75 0 00.627.74h5.373a.75.75 0 00.75-.75v-.615a.75.75 0 00-.75-.75H11.5a.75.75 0 00-.75.75v.625zm6.75-3.63v-.625a.75.75 0 00-.75-.75H11.5a.75.75 0 00-.75.75v.625c0 .414.336.75.75.75h5.25a.75.75 0 00.75-.75zm-8.25 0v-.625a.75.75 0 00-.75-.75H3.25a.75.75 0 00-.75.75v.625c0 .414.336.75.75.75H8.5a.75.75 0 00.75-.75zM17.5 8.5v-.625a.75.75 0 00-.75-.75H11.5a.75.75 0 00-.75.75V8.5c0 .414.336.75.75.75h5.25a.75.75 0 00.75-.75zm-8.25 0v-.625a.75.75 0 00-.75-.75H3.25a.75.75 0 00-.75.75V8.5c0 .414.336.75.75.75H8.5a.75.75 0 00.75-.75z" clip-rule="evenodd"/>
</svg>
